Quickit/src/img/icons/books.svg

<svg width="15" height="15" viewBox="0 0 15 15" fill="none" xmlns="http://www.w3.org/2000/svg">
<path fill-rule="evenodd" clip-rule="evenodd" d="M0.488156 0.488156C0.800716 0.175595 1.22464 0 1.66667 0H10C10.442 0 10.866 0.175595 11.1785 0.488156C11.4911 0.800716 11.6667 1.22464 11.6667 1.66667H13.3333C13.7754 1.66667 14.1993 1.84226 14.5118 2.15482C14.8244 2.46738 15 2.89131 15 3.33333V12.5C15 13.163 14.7366 13.7989 14.2678 14.2678C13.7989 14.7366 13.163 15 12.5 15H3.33333C2.44928 15 1.60143 14.6488 0.976311 14.0237C0.351189 13.3986 0 12.5507 0 11.6667V1.66667C0 1.22464 0.175595 0.800716 0.488156 0.488156ZM10.143 13.3333H3.33333C2.89131 13.3333 2.46738 13.1577 2.15482 12.8452C1.84226 12.5326 1.66667 12.1087 1.66667 11.6667L1.66667 1.66667L10 1.66667V12.5C10 12.7866 10.0492 13.0682 10.143 13.3333ZM11.6667 3.33333V12.5C11.6667 12.721 11.7545 12.933 11.9107 13.0893C12.067 13.2455 12.279 13.3333 12.5 13.3333C12.721 13.3333 12.933 13.2455 13.0893 13.0893C13.2455 12.933 13.3333 12.721 13.3333 12.5V3.33333H11.6667ZM3.33333 4.16667C3.33333 3.70643 3.70643 3.33333 4.16667 3.33333H7.5C7.96024 3.33333 8.33333 3.70643 8.33333 4.16667C8.33333 4.6269 7.96024 5 7.5 5H4.16667C3.70643 5 3.33333 4.6269 3.33333 4.16667ZM3.33333 7.5C3.33333 7.03976 3.70643 6.66667 4.16667 6.66667H7.5C7.96024 6.66667 8.33333 7.03976 8.33333 7.5C8.33333 7.96024 7.96024 8.33333 7.5 8.33333H4.16667C3.70643 8.33333 3.33333 7.96024 3.33333 7.5ZM3.33333 10.8333C3.33333 10.3731 3.70643 10 4.16667 10H7.5C7.96024 10 8.33333 10.3731 8.33333 10.8333C8.33333 11.2936 7.96024 11.6667 7.5 11.6667H4.16667C3.70643 11.6667 3.33333 11.2936 3.33333 10.8333Z" fill="#205BF1"/>
</svg>

<svg xmlns="http://www.w3.org/2000/svg" width="15" height="15" fill="none" xmlns:v="https://vecta.io/nano"><path fill-rule="evenodd" d="M.488.488C.801.176 1.225 0 1.667 0H10c.442 0 .866.176 1.178.488s.488.736.488 1.179h1.667c.442 0 .866.176 1.178.488S15 2.891 15 3.333V12.5a2.5 2.5 0 0 1-2.5 2.5H3.333c-.884 0-1.732-.351-2.357-.976S0 12.551 0 11.667v-10C0 1.225.176.801.488.488zm9.655 12.845h-6.81c-.442 0-.866-.176-1.179-.488s-.488-.736-.488-1.178v-10H10V12.5a2.5 2.5 0 0 0 .143.833zm1.524-10V12.5c0 .221.088.433.244.589s.368.244.589.244.433-.088.589-.244.244-.368.244-.589V3.333h-1.667zm-8.333.833c0-.46.373-.833.833-.833H7.5c.46 0 .833.373.833.833S7.96 5 7.5 5H4.167c-.46 0-.833-.373-.833-.833zm0 3.333c0-.46.373-.833.833-.833H7.5c.46 0 .833.373.833.833s-.373.833-.833.833H4.167c-.46 0-.833-.373-.833-.833zm0 3.333c0-.46.373-.833.833-.833H7.5c.46 0 .833.373.833.833s-.373.833-.833.833H4.167c-.46 0-.833-.373-.833-.833z" fill="#205bf1"/></svg>
